tools/download-figma-icons/icons/outlined-medium/new-customer.svg

<svg width="24" height="24" viewBox="0 0 24 24" fill="none" xmlns="http://www.w3.org/2000/svg">
<path fill-rule="evenodd" clip-rule="evenodd" d="M3.02851 18.0071C3.456 18.1646 5.46596 18.8246 9.74913 18.8246C10.0266 18.8246 10.2959 18.8246 10.5516 18.8171C10.5216 18.5554 10.4991 18.2779 10.4991 17.9996C10.4991 15.2247 12.3898 12.8847 14.954 12.2023C14.0015 11.153 12.5391 10.4998 10.9041 10.4998H8.59415C5.83346 10.4998 3.57675 12.3605 3.33601 14.8354L3.02851 18.0071ZM9.74915 1.49997C7.67845 1.49997 5.99848 3.18069 5.99848 5.24989C5.99848 7.31985 7.67845 8.99982 9.74915 8.99982C11.8116 8.99982 13.4991 7.31985 13.4991 5.24989C13.4991 3.18069 11.8116 1.49997 9.74915 1.49997ZM12.5841 20.2196C13.3573 21.5771 14.8273 22.4995 16.499 22.4995C18.9822 22.4995 20.9997 20.4821 20.9997 17.9996C20.9997 15.8404 19.4772 14.0322 17.4447 13.5972C17.1372 13.5372 16.8222 13.4997 16.499 13.4997C16.274 13.4997 16.0565 13.5147 15.839 13.553C13.6716 13.868 11.9991 15.7429 11.9991 17.9996C11.9991 18.2621 12.0216 18.5096 12.0666 18.7571C12.1491 19.2821 12.3291 19.7778 12.5841 20.2196ZM13.0566 9.32231C14.594 9.7873 15.8848 10.7405 16.709 12.0073C19.9197 12.113 22.4996 14.7597 22.4996 17.9996C22.4996 21.3078 19.8072 23.9995 16.499 23.9995C14.009 23.9995 11.8716 22.477 10.9641 20.3096C10.5816 20.3171 10.1766 20.3246 9.74914 20.3246C5.05348 20.3246 2.87103 19.5596 2.39854 19.3721C1.83605 19.2379 1.44606 18.7271 1.50605 18.1571L1.84355 14.6922C2.09104 12.1348 3.94425 10.0805 6.4417 9.32231C5.25673 8.36308 4.49849 6.89311 4.49849 5.24989C4.49849 2.35495 6.8542 0 9.74914 0C12.6441 0 14.999 2.35495 14.999 5.24989C14.999 6.89311 14.2415 8.36308 13.0566 9.32231ZM17.8483 17.2785H18.7783C19.175 17.2785 19.4998 17.604 19.4998 18C19.4998 18.3967 19.175 18.7215 18.7783 18.7215H17.8265H17.2213V19.269V20.2785C17.2213 20.6752 16.8966 20.9999 16.4998 20.9999C16.1031 20.9999 15.7783 20.6752 15.7783 20.2785V19.7017V18.7215H14.2214C14.0624 18.7215 13.9109 18.6637 13.7886 18.5767C13.6146 18.447 13.4999 18.2377 13.4999 18C13.4999 17.604 13.8246 17.2785 14.2214 17.2785H15.7783V15.7215C15.7783 15.4328 15.9448 15.1876 16.1901 15.0721C16.2838 15.0286 16.3911 15.0001 16.4998 15.0001C16.8966 15.0001 17.2213 15.3248 17.2213 15.7215V17.2785H17.8483Z" fill="black"/>
</svg>

<svg width="24" height="24" viewBox="0 0 24 24" fill="none" xmlns="http://www.w3.org/2000/svg"><path fill-rule="evenodd" clip-rule="evenodd" d="M3.029 18.007c.427.158 2.437.818 6.72.818.278 0 .547 0 .803-.008a7.22 7.22 0 0 1-.053-.817 6.006 6.006 0 0 1 4.455-5.798c-.953-1.049-2.415-1.702-4.05-1.702h-2.31c-2.76 0-5.017 1.86-5.258 4.335l-.307 3.172ZM9.749 1.5A3.751 3.751 0 0 0 9.75 9c2.063 0 3.75-1.68 3.75-3.75 0-2.07-1.687-3.75-3.75-3.75Zm2.835 18.72A4.513 4.513 0 0 0 16.5 22.5c2.483 0 4.5-2.018 4.5-4.5a4.505 4.505 0 0 0-3.554-4.403 4.927 4.927 0 0 0-.946-.097c-.225 0-.442.015-.66.053A4.5 4.5 0 0 0 11.999 18c0 .262.023.51.068.757a4.25 4.25 0 0 0 .517 1.463Zm.473-10.898c1.537.465 2.828 1.419 3.652 2.685A6 6 0 0 1 22.499 18c0 3.308-2.692 6-6 6a6.003 6.003 0 0 1-5.535-3.69c-.382.007-.787.015-1.215.015-4.696 0-6.878-.765-7.35-.953-.563-.134-.953-.645-.893-1.215l.338-3.465c.247-2.557 2.1-4.611 4.598-5.37A5.23 5.23 0 0 1 4.498 5.25 5.256 5.256 0 0 1 9.75 0 5.256 5.256 0 0 1 15 5.25a5.23 5.23 0 0 1-1.942 4.072Zm4.791 7.957h.93c.397 0 .722.325.722.721a.724.724 0 0 1-.722.721h-1.557v1.558a.724.724 0 0 1-.721.72.724.724 0 0 1-.722-.72v-1.557h-1.557A.718.718 0 0 1 13.5 18c0-.397.325-.723.721-.723h1.557v-1.556c0-.29.167-.534.412-.65A.745.745 0 0 1 16.5 15c.397 0 .721.325.721.722v1.557h.627Z" fill="currentColor"/></svg>
